svgs/light/tower-control.svg

<svg xmlns="http://www.w3.org/2000/svg" viewBox="0 0 448 512"><!--! Font Awesome Pro 6.6.0 by @fontawesome - https://fontawesome.com License - https://fontawesome.com/license (Commercial License) Copyright 2024 Fonticons, Inc. --><path d="M160 16c0-8.8 7.2-16 16-16l48 0 48 0c8.8 0 16 7.2 16 16s-7.2 16-16 16l-32 0 0 32 48 0c17.7 0 32 14.3 32 32l0 32 80.9 0c26.2 0 45.3 24.8 38.7 50.1L402.6 320.2c7.6 1.2 13.4 7.8 13.4 15.8c0 8.8-7.2 16-16 16l-48 0 0 144c0 8.8-7.2 16-16 16s-16-7.2-16-16l0-144-192 0 0 144c0 8.8-7.2 16-16 16s-16-7.2-16-16l0-144-48 0c-8.8 0-16-7.2-16-16c0-8 5.8-14.6 13.4-15.8L8.4 178.1C1.8 152.8 20.9 128 47.1 128l80.9 0 0-32c0-17.7 14.3-32 32-32l48 0 0-32-32 0c-8.8 0-16-7.2-16-16zM128 160.2l0-.2-80.9 0c-5.2 0-9.1 5-7.7 10L78.5 320l49.6 0 0-159.8zM160 320l128 0 0-159.8 0-.2-128 0 0 160zM320 160l0 160 49.6 0 39.1-150c1.3-5.1-2.5-10-7.7-10L320 160zm-32-32l0-32L160 96l0 32 128 0z"/></svg>

<svg xmlns="http://www.w3.org/2000/svg" viewBox="0 0 448 512"><!--! Font Awesome Pro 6.4.0 by @fontawesome - https://fontawesome.com License - https://fontawesome.com/license (Commercial License) Copyright 2023 Fonticons, Inc. --><path d="M160 16c0-8.8 7.2-16 16-16h48 48c8.8 0 16 7.2 16 16s-7.2 16-16 16H240V64h48c17.7 0 32 14.3 32 32v32h80.9c26.2 0 45.3 24.8 38.7 50.1L402.6 320.2c7.6 1.2 13.4 7.8 13.4 15.8c0 8.8-7.2 16-16 16H352V496c0 8.8-7.2 16-16 16s-16-7.2-16-16V352l-192 0V496c0 8.8-7.2 16-16 16s-16-7.2-16-16V352H48c-8.8 0-16-7.2-16-16c0-8 5.8-14.6 13.4-15.8L8.4 178.1C1.8 152.8 20.9 128 47.1 128H128V96c0-17.7 14.3-32 32-32h48V32H176c-8.8 0-16-7.2-16-16zM128 160.2c0-.1 0-.1 0-.2H47.1c-5.2 0-9.1 5-7.7 10L78.5 320H128V160.2zM160 320H288V160.2c0-.1 0-.1 0-.2H160V320zM320 160V320l49.6 0 39.1-150c1.3-5.1-2.5-10-7.7-10H320zm-32-32V96H160v32H288z"/></svg>
